symbols/web/flight_takeoff/materialsymbolsoutlined/flight_takeoff_wght500_40px.svg

<svg xmlns="http://www.w3.org/2000/svg" height="40" width="40"><path d="M4.875 35.208v-3.166h30.417v3.166Zm2.917-8.541L3.125 18.75l2.417-.458 2.916 2.583 8.584-2.333-7-11.792 3.041-.875 11.709 10.542 8.708-2.334q1.25-.333 2.312.479 1.063.813 1.063 2.188 0 .917-.542 1.625-.541.708-1.416.958Z"/></svg>

<svg xmlns="http://www.w3.org/2000/svg" height="40" width="40"><path d="M4.875 35.208V32.042H35.292V35.208ZM7.792 26.667 3.125 18.75 5.542 18.292 8.458 20.875 17.042 18.542 10.042 6.75 13.083 5.875 24.792 16.417 33.5 14.083Q34.75 13.75 35.812 14.562Q36.875 15.375 36.875 16.75Q36.875 17.667 36.333 18.375Q35.792 19.083 34.917 19.333Z"/></svg>
